**kern	**dynam	**kern	**dynam	**kern	**dynam	**kern	**dynam	**mxhm
*part4	*part4	*part3	*part3	*part2	*part2	*part1	*part1	*part1
*staff4	*	*staff3	*	*staff2	*	*staff1	*	*
*I"Cello	*	*I"Viola	*	*I"2nd Violin	*	*I"1st Violin	*	*
*clefF4	*	*clefC3	*	*clefG2	*	*clefG2	*	*
*k[f#c#g#d#]	*	*k[f#c#g#d#]	*	*k[f#c#g#d#]	*	*k[f#c#g#d#]	*	*
*E:	*	*E:	*	*E:	*	*E:	*	*
*M6/8	*	*M6/8	*	*M6/8	*	*M6/8	*	*
!	!LO:DY:a	!	!LO:DY:a	!	!LO:DY:a	!LO:TX:a:B:t=No 2.  Allegro molto vivace	!	!
(4.EE	pp pp	(4.E	pp	(4.e	pp	(4.e	.	.D.I
=1	=1	=1	=1	=1	=1	=1	=1	=1
4.E)	.	4.e	.	4.e)	.	(4.ee)	.	I[I
(4.E	.	4.G#	.	(4.e	.	(4ee)	.	.
.	.	.	.	.	.	8dd#)	.	.
=2	=2	=2	=2	=2	=2	=2	=2	=2
4.E)	.	4.A)	.	4.e)	.	(4dd#	.	IV(#2)
.	.	.	.	.	.	8b#X	.	.
(4.E	.	(4.A	.	(4.e	.	4cc#	.	IV
.	.	.	.	.	.	8dd#	.	.
=3	=3	=3	=3	=3	=3	=3	=3	=3
4.E)	.	4.A)	.	4.e)	.	4ee	.	.
.	.	.	.	.	.	8dd#	.	.
(4.E	.	(4.A	.	(4.e	.	8ff#L	.	.
.	.	.	.	.	.	8ee	.	.
.	.	.	.	.	.	8cc#J)	.	.
=4	=4	=4	=4	=4	=4	=4	=4	=4
4.E)	.	4.A)	.	4.e)	.	(4cc#	.	.
.	.	.	.	.	.	8b	.	.
(4.E	.	(4.G#	.	(4.e	.	4ee	.	I
.	.	.	.	.	.	8ff#	.	.
=5	=5	=5	=5	=5	=5	=5	=5	=5
4.E)	.	4.G#)	.	4.e)	.	4gg#	.	.
.	.	.	.	.	.	8ff#	.	.
(4.E	.	(4.G#	.	(4.e	.	4ee	.	.
.	.	.	.	.	.	8dd#)	.	.
=6	=6	=6	=6	=6	=6	=6	=6	=6
4.E)	.	4.A)	.	4.e)	.	(4dd#	.	IV(#2)
.	.	.	.	.	.	8b#X	.	.
(4.E	.	(4.A	.	(4.e	.	4cc#	.	IV
.	.	.	.	.	.	8dd#	.	.
=7	=7	=7	=7	=7	=7	=7	=7	=7
!LO:TX:b:i:t=un poco ritard.	!	!	!	!	!	!	!	!
!LO:TX:a:i:t=un poco ritard.	!	!LO:TX:a:i:t=un poco ritard.	!	!LO:TX:a:i:t=un poco ritard.	!	!	!	!
4.E)	.	4.A)	.	4.e)	.	4ee	<	.
.	.	.	.	.	.	8dd#	.	.
(4.E	.	(4.A	.	4.c#	.	(8ff#L	[ >	.
.	.	.	.	.	.	8ee)	.	.
.	.	.	.	.	.	8cc#J)	]]	.
=8	=8	=8	=8	=8	=8	=8	=8	=8
!	!	!	!	!	!	!LO:TX:a:B:t=in tempo	!	!
!	!	!	!	!	!	!LO:TX:a:i:t=piu	!	!
4E)	.	4G#)	.	(8BL	.	4b	.	I
.	.	.	.	8f#	.	.	.	.
8r	.	8r	.	8eJ)	.	8r	.	.
!	!	!LO:TX:b:i:t=cresc.	!	!	!	!LO:TX:b:i:t=cresc.	!	!
4r	.	(4.e	.	4r	.	(8g#L	.	.
.	.	.	.	.	.	8a	.	.
8r	.	.	.	8r	.	8g#J)	.	.
*clefC4	*	*	*	*	*	*	*	*
=9	=9	=9	=9	=9	=9	=9	=9	=9
!LO:TX:b:i:t=cresc.	!	!	!	!LO:TX:b:i:t=cresc.	!	!	!	!
(8eL	.	[4.ee)	.	(8gg#L	.	4r	.	.
8f#	.	.	.	8aa	.	.	.	.
8eJ)	.	.	.	8gg#J)	.	8r	.	.
4r	.	(4ee]	.	8g#L	.	(8bbL	.	.
.	.	.	.	8g#	.	8ccc#	.	.
8r	.	8dd#)	.	8g#J	.	8bbJ)	.	.
=10	=10	=10	=10	=10	=10	=10	=10	=10
(8eL	.	(4dd#	.	8aL	.	4r	.	IV(#2)
8f#	.	.	.	8a	.	.	.	.
8eJ)	.	8b#X	.	8aJ	.	8r	.	.
4r	.	4cc#	.	4r	.	(8aaL	.	IV6
.	.	.	.	.	.	8bb	.	.
8r	.	8dd#	.	8r	.	8aaJ)	.	.
=11	=11	=11	=11	=11	=11	=11	=11	=11
8eL	.	4ee	.	8aL 8cc#	.	4r	.	IV64
8e	.	.	.	8a 8cc#	.	.	.	.
8eJ	.	8dd#	.	8aJ 8cc#	.	8aa	.	.
4r	.	8ff#L	.	4r	.	8aa	.	.
.	.	8ee	.	.	.	4aa	.	.
8r	.	8cc#J)	.	8r	.	.	.	.
=12	=12	=12	=12	=12	=12	=12	=12	=12
8eL	.	(4cc#	.	(8g#L	.	4r	.	vi
8e	.	.	.	8a	.	.	.	.
8eJ	.	8b)	.	8g#J)	.	8r	.	I
(4g#	.	(4b	.	4r	.	(4ee	.	.
8f#)	.	8a)	.	8r	.	8ff#	.	.
=13	=13	=13	=13	=13	=13	=13	=13	=13
8eL	.	8g#L	.	4r	.	4gg#	.	.
8e	.	8g#	.	.	.	.	.	.
8eJ	.	8g#J	.	8r	.	8ff#	.	.
4r	.	4r	.	8gg#L	.	4ee	.	.
.	.	.	.	8gg#	.	.	.	.
8r	.	8r	.	8gg#J	.	8dd#)	.	.
=14	=14	=14	=14	=14	=14	=14	=14	=14
8eL	.	8aL	.	4r	.	(4dd#	.	IV(4)
8e	.	8a	.	.	.	.	.	.
8eJ	.	8aJ	.	8r	.	8b#X	.	IV(#2)
4r	.	4r	.	(8aaL	.	4cc#	.	IV
.	.	.	.	8bb	.	.	.	.
8r	.	8r	.	8aaJ)	.	8dd#	.	.
=15	=15	=15	=15	=15	=15	=15	=15	=15
8eL	.	8aL 8cc#	.	4r	.	4ee	.	IV
8e	.	8a 8cc#	.	.	.	.	.	.
8eJ	.	8aJ 8cc#	.	8r	.	8dd#	.	.
4r	.	4r	.	8aaL	.	8ff#L	.	IV
.	.	.	.	8aa	.	8ee	.	.
8r	.	8r	.	8aaJ	.	8cc#J)	.	.
=16	=16	=16	=16	=16	=16	=16	=16	=16
8eL	.	8g#L	.	4r	.	(4cc#	.	vi
8e	.	8g#	.	.	.	.	.	.
8eJ	.	8g#J	.	8r	.	8a#X	.	.
(4.e	.	8g#L	.	8gg#L	.	4b	.	I]
.	.	8g#	.	8b	.	.	.	.
.	.	8g#J	.	8bJ	.	8gg#)	.	.
=17	=17	=17	=17	=17	=17	=17	=17	=17
4.d#	>	8g#L	>	8bL	>	[4.gg#	>	iii64
.	.	8g#	.	8b	.	.	.	.
.	.	8g#J	.	8bJ	.	.	.	.
4.d)	]]	8f#L	.	8bL	.	(4gg#]	.	iii%43
.	.	8e#X	.	8b	.	.	.	.
.	.	8e#J	]]	8g#J	]]	8b)	]]	viio2/ii
=18	=18	=18	=18	=18	=18	=18	=18	=18
!	!	!	!LO:DY:a	!	!	!	!	!
4c#'	f	8e#XL	f f	8g#L	.	(4b	f	V7/ii
.	.	8e#	.	8g#	.	.	.	.
8r	.	8BJ	.	8e#XJ	.	8g#	.	.
4B#X'	.	8AL	.	8f#L	.	4a	.	#viio/vi
.	.	8A	.	8f#	.	.	.	.
8r	.	8AJ	.	8f#J	.	8ff#)	.	.
=19	=19	=19	=19	=19	=19	=19	=19	=19
4B'	.	8AL	.	8aL	.	(4ff#	.	V7
.	.	8d#	.	8a	.	.	.	.
8r	.	8eJ	.	8g#J	.	8ee)	.	I
4BB'	.	8BL	.	8g#L	.	(4ee	.	V(64)
.	.	8A#X	.	8f##X	.	.	.	.
8r	.	8AJ	.	8f#J	.	8dd#)	.	V7
=20	=20	=20	=20	=20	=20	=20	=20	=20
!	!	!	!LO:DY:a	!	!	!	!	!
4.c#	p	8AL	p p	8f#L	.	(4a	p	vii%43
!	!	!LO:TX:b:i:t=cresc.	!	!LO:TX:b:i:t=cresc.	!	!	!	!
.	.	8A	.	8d#	.	.	.	.
!	!	!	!	!	!	!LO:TX:b:i:t=cresc.	!	!
.	.	8AJ	.	8d#J	.	8f#	.	.
!LO:TX:b:i:t=cresc.	!	!	!	!	!	!	!	!
(4.c#	.	8G#L	.	8eL	.	4g#	.	III[vi64
.	.	8G#	.	8e	.	.	.	.
.	.	8G#J	.	8eJ	.	8ee)	.	.
=21	=21	=21	=21	=21	=21	=21	=21	=21
4.B#X	>	8G#L	>	8eL	>	[4.ee	>	I+6
.	.	8G#	.	8e	.	.	.	.
.	.	8G#J	.	8eJ	.	.	.	.
4.B	]]	8G#L	.	8eL	.	(4ee]	.	I64]
.	.	8G#	.	8e	.	.	.	.
.	.	8G#J	]]	8eJ	]]	8g#)	]]	.
=22	=22	=22	=22	=22	=22	=22	=22	=22
!	!	!	!LO:DY:a	!	!LO:DY:a	!	!	!
4A#X)	f	8c#L	f f	8cc#L	f	(4g#	.	#iv7
.	.	8c#	.	8cc#	.	.	.	.
8r	.	8c#J	.	8cc#J	.	8e#X	.	.
4A	.	8AL	.	8c#L	.	4f#	.	ii6
.	.	8A	.	8c#	.	.	.	.
8r	.	8AJ	.	8c#J	.	8cc#)	.	.
=23	=23	=23	=23	=23	=23	=23	=23	=23
4BB	.	8AL	.	8d#L	.	(4cc#	.	V7(2)
.	.	8G#	.	8e	.	.	.	.
8r	.	8G#J	.	8eJ	.	8b)	.	V(64)
4BB	.	8G#L	.	8eL	.	(4b	.	V7
.	.	8F#	.	8A	.	.	.	.
8r	.	8F#J	.	8AJ	.	8d#)	.	.
=24	=24	=24	=24	=24	=24	=24	=24	=24
4E	.	4E	.	4g#	.	4r	.	I\\
8r	.	8r	.	8r	.	(8e	p	.
!	!	!	!	!	!	!LO:TX:b:i:t=cresc.	!	!
(4.BB	p	4r	.	4r	.	4a	.	V7
.	.	8r	.	8r	.	8g#	.	.
=25	=25	=25	=25	=25	=25	=25	=25	=25
!LO:TX:b:i:t=cresc.	!	!	!	!	!	!	!	!
4.GG#	.	2.r	.	2.r	.	4cc#	.	I6(4)
.	.	.	.	.	.	8b	.	I6
4.EE	.	.	.	.	.	4ff#	.	I(2)
.	.	.	.	.	.	8ee	.	I
=26	=26	=26	=26	=26	=26	=26	=26	=26
4.DD#)	.	4r	.	4r	.	4gg#	.	V6(4)
.	.	8r	.	8r	.	8ff#	.	V6
(4.D#	.	[4.a	.	(4.ff#	.	4bb	.	V65
.	.	.	.	.	.	8aa	.	.
=27	=27	=27	=27	=27	=27	=27	=27	=27
4.F#	.	(4.a]	.	4.dd#	.	4gg#	.	V43(2)
.	.	.	.	.	.	8aa	.	.
4.A	.	4d#	.	[4.b)	.	4ff#	.	V2
.	.	8B)	.	.	.	8dd#)	.	.
=28	=28	=28	=28	=28	=28	=28	=28	=28
4.G#)	p	(4.B	p	(4.b]	p	(4ff#	p	I6(7)
.	.	.	.	.	.	8ee	.	.
(4.GG#	.	4.G#	.	[4.e	.	4b	.	I6
.	.	.	.	.	.	8b#X	.	I+6
=29	=29	=29	=29	=29	=29	=29	=29	=29
4.AA	.	2.F#)	.	4.e]	.	4dd#	.	ii65(4)
.	.	.	.	.	.	8cc#	.	ii65
4.BB)	.	.	.	4.d#)	.	4f#	.	V
.	.	.	.	.	.	8b)	.	.
=30	=30	=30	=30	=30	=30	=30	=30	=30
!LO:TX:b:i:t=cresc.	!	!LO:TX:b:i:t=cresc.	!	!LO:TX:b:i:t=cresc.	!	!LO:TX:b:i:t=cresc.	!	!
4GG#	.	4E	.	4r	.	(2.bb	.	I(4)
8r	.	8r	.	(8e	.	.	.	.
4EE	.	4r	.	4a	.	.	.	.
8r	.	8r	.	8g#	.	.	.	.
=31	=31	=31	=31	=31	=31	=31	=31	=31
4r	.	4g#	.	4cc#	.	(4.bb)	.	I6(4)
8r	.	8r	.	8b	.	.	.	.
4EE	.	4E	.	4ff#	.	4gg#)	.	I(2)
8r	.	8r	.	8ee)	.	8r	.	.
=32	=32	=32	=32	=32	=32	=32	=32	=32
4A#X	.	2.r	.	4r	.	(2.ccc#	.	V6(7)/V
8r	.	.	.	(8c#	.	.	.	.
4AA#X	.	.	.	4g#	.	.	.	.
8r	.	.	.	8f#	.	.	.	.
=33	=33	=33	=33	=33	=33	=33	=33	=33
4r	.	4a#X	.	4dd#	.	4.ccc#)	.	V6(4)/V
8r	.	(8A#X	.	8cc#	.	.	.	.
4AA#X	.	4d#	.	4ff#	.	4ff#	.	V65/V
8r	.	8c#)	.	8ee)	.	8r	.	.
=34	=34	=34	=34	=34	=34	=34	=34	=34
4B	.	4r	.	4r	.	[2.ddd#	.	V.I\\
8r	.	(8D#	.	(8d#	.	.	.	.
4BB	.	4G#	.	4g#	.	.	.	.
8r	.	8F#	.	8f#	.	.	.	.
=35	=35	=35	=35	=35	=35	=35	=35	=35
4r	.	4c#	.	4cc#	.	(4.ddd#]	.	I(2)
8r	.	8B	.	8b	.	.	.	.
4BB	.	4e	.	4ee	.	4ff#)	.	I(4)
8r	.	8d#)	.	8dd#)	.	8r	.	.
=36	=36	=36	=36	=36	=36	=36	=36	=36
4c#	.	4r	.	4r	.	(2.eee	.	V43(7)
8r	.	(8E	.	(8e	.	.	.	.
4C#	.	4B	.	4b	.	.	.	.
8r	.	8A#X	.	8a#X	.	.	.	.
=37	=37	=37	=37	=37	=37	=37	=37	=37
4r	.	4d#	.	4dd#	.	(4.eee)	.	V43(2)
8r	.	8c#	.	8cc#	.	.	.	.
4C#	.	4f#	.	4ff#	.	4aa#X)	.	V43
8r	.	8e	.	8ee	.	8r	.	.
=38	=38	=38	=38	=38	=38	=38	=38	=38
!LO:TX:b:i:t=dim.	!	!LO:TX:b:i:t=dim.	!	!LO:TX:b:i:t=dim.	!	!LO:TX:b:i:t=dim.	!	!
4.d#	.	4g#	.	4gg#	.	(4.fff#	.	I6(4)
.	.	8f#	.	8ff#	.	.	.	.
(4.d#	.	4.a#X)	.	4dd#	.	4.fff##X	.	V7/vi
.	.	.	.	8cc#)	.	.	.	.
=39	=39	=39	=39	=39	=39	=39	=39	=39
4.e	.	4g#	.	(4.cc#	.	4.ggg#	.	ii6
.	.	(8g#	.	.	.	.	.	.
4.f#	.	4a	.	4.dd#	.	4.bb#X	.	#viio43/ii
.	.	8g#)	.	.	.	.	.	.
=40	=40	=40	=40	=40	=40	=40	=40	=40
4.e#X)	.	2.g#	.	4cc#)	.	4.ccc#	.	V6/V
.	.	.	.	(8gg#	.	.	.	.
(4.e	.	.	.	4aa#X	.	4.ccc##X	.	.Ger6
.	.	.	.	8gg#)	.	.	.	.
=41	=41	=41	=41	=41	=41	=41	=41	=41
!LO:TX:b:i:t=cresc.	!	!LO:TX:b:i:t=cresc.	!	!LO:TX:b:i:t=cresc.	!	!LO:TX:b:i:t=cresc.	!	!
4.d#	.	4.a#X	.	(4.ff##X	.	4.ddd#X	.	III
*clefF4	*	*	*	*	*	*	*	*
4.F##X	.	(4.a#	.	[4.dd#)	.	4.ccc#	.	V65
=42	=42	=42	=42	=42	=42	=42	=42	=42
4.G#	.	4.g#	.	2.dd#_	.	4.bb	.	vi
[4.D#	.	4.f##X	.	.	.	4.aa#X	.	V/vi
=43	=43	=43	=43	=43	=43	=43	=43	=43
4.D#]	>	4.a#X	>	2.dd#]	>]	4.ccc#	>	V7/vi
[4.DD#)	]]	4.g#X)	]]	.	.	4.bb)	]]	V(64)/vi
=44	=44	=44	=44	=44	=44	=44	=44	=44
4DD#]	p	[2.g	p	(4.dd#	p	[2.aa#X	p	V/vi
(8DD#	.	.	.	.	.	.	.	.
4EE	.	.	.	(4.ff##X)	.	.	.	.
8DD#)	.	.	.	.	.	.	.	.
=45	=45	=45	=45	=45	=45	=45	=45	=45
!	!	!LO:TX:b:i:t=piu p	!	!LO:TX:b:i:t=piu p	!	!LO:TX:b:i:t=piu p	!	!
4r	.	2.g_	.	[2.ff##X)	.	2.aa#_	.	.
!LO:TX:b:i:t=piu p	!	!	!	!	!	!	!	!
(8D#	.	.	.	.	.	.	.	.
4E	.	.	.	.	.	.	.	.
8D#)	.	.	.	.	.	.	.	.
=46	=46	=46	=46	=46	=46	=46	=46	=46
4r	.	2.g_	.	2.ff##_	.	2.aa#_	.	.
*clefC4	*	*	*	*	*	*	*	*
(8d#	.	.	.	.	.	.	.	.
4e	.	.	.	.	.	.	.	.
8d#)	.	.	.	.	.	.	.	.
=47	=47	=47	=47	=47	=47	=47	=47	=47
!	!	!	!LO:DY:a	!	!LO:DY:a	!	!LO:DY:a	!
4r	.	4g]	pp	2.ff##_	pp	2.aa#_	pp	.
8r	.	(8dd#	.	.	.	.	.	.
4r	.	4ee	.	.	.	.	.	.
(8d#	pp	[8dd#)	.	.	.	.	.	.
=48	=48	=48	=48	=48	=48	=48	=48	=48
4e	.	4.dd#;]	.	4.ff##;]	.	4.aa#;]	.	.
8d#;)	.	.	.	.	.	.	.	.
*clefF4	*	*	*	*	*	*	*	*
!	!	!	!LO:DY:a	!	!LO:DY:a	!	!	!
(4.F#	pp	4r	pp	[4.f#	pp	4.f#	.	II.I
.	.	8r	.	.	.	.	.	.
=49	=49	=49	=49	=49	=49	=49	=49	=49
[2.f#)	.	4r	.	4.f#]	.	[4.ff#	.	I[I
.	.	8r	.	.	.	.	.	.
.	.	(8a#XL	pp	(8cc#L	.	(4ff#]	.	.
.	.	8g#	.	8b	.	.	.	.
.	.	8a#J)	.	8cc#J)	.	8ee#X)	.	.
=50	=50	=50	=50	=50	=50	=50	=50	=50
2.f#_	.	(8bL	.	4r	.	(4ee#X	.	IV(#4#2)
.	.	8a#X	.	.	.	.	.	.
.	.	8bJ)	.	8r	.	8cc##X	.	.
.	.	4r	.	(8bL	.	4dd#	.	IV
.	.	.	.	8cc#	.	.	.	.
.	.	8r	.	8bJ)	.	8ee#	.	.
=51	=51	=51	=51	=51	=51	=51	=51	=51
2.f#]	.	2.r	.	2.b	.	4ff#	.	.
.	.	.	.	.	.	8ee#X	.	.
.	.	.	.	.	.	8gg#L	.	IV64]
.	.	.	.	.	.	8ff#	.	.
.	.	.	.	.	.	8dd#J)	.	.
=52	=52	=52	=52	=52	=52	=52	=52	=52
(8f#L	.	2.r	.	4.a#X	.	(4dd#	.	I(6)
8e#X	.	.	.	.	.	.	.	.
8f#J)	.	.	.	.	.	8cc#	.	I
4r	.	.	.	(8a#L	.	4ff#	.	I6
.	.	.	.	8b	.	.	.	.
8r	.	.	.	8a#J)	.	8gg#	.	.
=53	=53	=53	=53	=53	=53	=53	=53	=53
(4.FF#	.	(8A#XL	.	2.r	.	4aa#X	.	I
.	.	8G#	.	.	.	.	.	.
.	.	8A#J	.	.	.	8gg#	.	.
4GG#	.	4B	.	.	.	4ff#	.	ii7
8AA#X)	.	8c#)	.	.	.	8ee#X)	.	iii
=54	=54	=54	=54	=54	=54	=54	=54	=54
4.BB	.	4.F#	.	2.r	.	(4ee#X	.	IV(#4#2)
.	.	.	.	.	.	8cc##X	.	.
*clefC4	*	*	*	*	*	*	*	*
(4B	.	(4.f#	.	.	.	4dd#	.	IV
8c#)	.	.	.	.	.	8ee#	.	.
=55	=55	=55	=55	=55	=55	=55	=55	=55
!LO:TX:b:i:t=poco rit.	!	!LO:TX:b:i:t=poco rit.	!	!	!	!LO:TX:b:i:t=poco rit.	!	!
4.d#	.	4.b)	.	2.r	.	4ff#	.	IV6
.	.	.	.	.	.	8ee#X	.	.
(4d#	.	4.b	.	.	.	(8gg#L	.	.
.	.	.	.	.	.	8ff#)	.	.
8e#X)	.	.	.	.	.	8dd#J)	.	.
=56	=56	=56	=56	=56	=56	=56	=56	=56
!	!	!	!	!	!	!LO:TX:b:i:t=cresc.	!	!
!LO:TX:b:i:t=cresc.	!	!LO:TX:b:i:t=cresc.	!	!LO:TX:b:i:t=cresc.	!	!LO:TX:a:B:t=in tempo	!	!
[4.f#	.	4a#X	.	(8a#XL	.	(4dd#	.	I
.	.	.	.	8b	.	.	.	.
.	.	8r	.	8a#J)	.	8b#X	.	.
(4f#]	.	(8c#L	.	(8a#L	.	4cc#	.	I64
.	.	8d#	.	8b	.	.	.	.
8e)	.	8c#J)	.	8a#J)	.	8aa#X)	.	V2/IV
=57	=57	=57	=57	=57	=57	=57	=57	=57
(4e	.	(4c#	.	(4a#X	.	[4.aa#X	.	.
8d#	.	8f#	.	8ff#	.	.	.	.
4c#	.	4e	.	4ee	.	(4aa#]	.	.
8B)	.	8d#)	.	8dd#)	.	8bb)	.	IV
=58	=58	=58	=58	=58	=58	=58	=58	=58
(4B	.	(4d#	.	(4dd#	.	[4.ccc#	.	IV(2)
8A#X	.	8cc#	.	8ccc#	.	.	.	.
4G#	.	4b	.	4bb	.	(4ccc#]	.	ii(4)
8F#)	.	8a#X)	.	8aa#X)	.	8ddd#)	.	V.iii6
=59	=59	=59	=59	=59	=59	=59	=59	=59
(4F#	.	(4a#X	.	(4aa#X	.	[4.eee	.	V7
8E	.	8g#	.	8gg#	.	.	.	.
4D#	.	4f#	.	4ff#	.	(4eee]	.	.
8C#)	.	8e)	.	8ee)	.	8fff#)	.	.
=60	=60	=60	=60	=60	=60	=60	=60	=60
4BB	f	4d#	f	4dd#	f	4ddd#'	f	I
8BB'	.	8F#'	.	8d#'	.	(8ff#	.	.
4AA#X'	.	4F#'	.	4c#'	.	4gg#	.	V6(7)
8BB'	.	8F#'	.	8d#'	.	8dd#	.	.
=61	=61	=61	=61	=61	=61	=61	=61	=61
4AA#X'	.	4F#'	.	4c#'	.	4ff#)	.	V6
!	!	!	!	!	!LO:DY:a	!	!	!
8r	.	8r	.	8b'	p p	(8cc#	.	.
4r	.	4r	.	4a#X'	.	4gg#	.	V6(7)
8A#X'	p	8r	.	8cc#'	.	8ee	.	V65
=62	=62	=62	=62	=62	=62	=62	=62	=62
4B'	.	4r	.	4f#'	.	4dd#)	.	I
!	!LO:DY:a	!	!	!	!LO:DY:a	!	!	!
8C#'	f f	8E'	.	8r	f	(8gg#	.	ii
4BB#X'	.	4D#'	.	4r	.	4aa	.	viio7/ii
8C#'	.	8E'	.	8r	.	8ee	.	ii
=63	=63	=63	=63	=63	=63	=63	=63	=63
4BB#X'	.	4D#'	.	4r	.	4gg#)	.	V43/ii
!	!	!	!	!	!LO:DY:a	!	!	!
8r	.	8r	.	8cc#'	p p	(8dd#	.	.
4r	.	4r	.	4b#X'	.	4aa	.	viio7/ii
8G#'	p	8r	.	8dd#'	.	8ff#	.	.
=64	=64	=64	=64	=64	=64	=64	=64	=64
4c#'	.	4r	.	4g#'	.	4ee)	.	ii
8EE'	f	8G#'	f	8r	.	(8bb	f	I.I
4DD#'	.	4F#'	.	4r	.	4ccc#	.	vii%7
8EE'	.	8G#'	.	8r	.	8gg#	.	I
=65	=65	=65	=65	=65	=65	=65	=65	=65
4DD#'	.	4F#'	.	4r	.	4bb)	.	V65
8r	.	8r	.	8ee'	.	(8ff#	.	.
4r	.	4r	.	4dd#'	.	4ccc#	.	V6(7)
8B	.	8d#	.	8ff#'	.	8aa)	.	V7
=66	=66	=66	=66	=66	=66	=66	=66	=66
!LO:TX:b:i:t=cresc.	!	!LO:TX:b:i:t=cresc.	!	!LO:TX:b:i:t=cresc.	!	!LO:TX:b:i:t=cresc.	!	!
4e'	.	4g#'	.	4b'	.	(4aa	.	I(4)
8f#'	.	8a'	.	8b'	.	8gg#	.	.
4e'	f	4g#'	f	4b'	f	4bb	f	I
8r	.	8r	.	8r	.	8gg#)	.	.
=67	=67	=67	=67	=67	=67	=67	=67	=67
4r	.	4r	.	4r	.	(4gg#	.	.
8e	.	8g#	.	8b	.	8ff#	.	.
4d#	sf	4f#	sf	4b	sf	4bb	sf	V6
8r	.	8r	.	8r	.	8ff#)	.	.
=68	=68	=68	=68	=68	=68	=68	=68	=68
4r	.	4r	.	4r	.	(4ff#	.	.
8d#	.	8f#	.	8b	.	8ee	.	.
4c#	sf	4e	sf	4b	sf	4bb	sf	vi7
8r	.	8r	.	8r	.	8ee)	.	.
=69	=69	=69	=69	=69	=69	=69	=69	=69
4r	.	4r	.	4r	.	(4ee	.	.
8c#	.	8e	.	8b	.	8dd#	.	.
4B	sf	4d#	sf	4b	sf	4bb	sf	V
8r	.	8B	.	8b	.	8dd#	.	.
=70	=70	=70	=70	=70	=70	=70	=70	=70
4r	.	4A	f	4a	f	4bb)	f	V2
8B	f	8r	.	8r	.	(8dd#	.	.
4A	.	4r	.	4r	.	4bb	sf	.
8r	.	8A	.	8a	.	8dd#	.	.
=71	=71	=71	=71	=71	=71	=71	=71	=71
4r	.	4G#	.	4g#	.	4bb)	.	I6
8A	.	8r	.	8r	.	(8dd#	.	.
4G#	sf	4r	.	4r	.	4bb	sf	.
8r	.	8G#	.	8g#	.	8ee	.	.
=72	=72	=72	=72	=72	=72	=72	=72	=72
4r	.	4F#	.	4f#	.	4bb)	.	V43
8G#	.	8B	.	8e	.	(8ee	.	.
4F#	sf	4A	sf	4d#	sf	4bb	sf	.
8A	.	8d#	.	8B 8f#	.	8ff#	.	.
=73	=73	=73	=73	=73	=73	=73	=73	=73
4D#	.	4F# 4A	.	4B 4f#	.	4bb)	.	V65
8F#	.	8A	.	8d#	.	(8ff#	.	V43
!	!	!	!LO:DY:a	!	!LO:DY:a	!	!	!
4E	fz	4G#	fz fz	4e	fz	4bb	.	I
8E	.	8g#	.	8b	.	8gg#)	.	.
=74	=74	=74	=74	=74	=74	=74	=74	=74
(2.D#	p	4B	p	4b	p	4bb	p	V6
.	.	8r	.	8r	.	(8B	.	.
.	.	4r	.	4r	.	4b	.	.
.	.	8r	.	8r	.	8f##X	.	.
=75	=75	=75	=75	=75	=75	=75	=75	=75
4E)	.	2.e	.	4r	.	4a	.	I(4)
8r	.	.	.	(8b	.	8g#)	.	I
4r	.	.	.	4bb	.	4r	.	.
8r	.	.	.	8gg#)	.	8r	.	.
=76	=76	=76	=76	=76	=76	=76	=76	=76
(4.e	.	(4A#X	.	(4gg#	.	4r	.	V.V65(7)
.	.	8c#	.	8ff#)	.	(8aa#X	.	V43
4d#	.	4B	.	4r	.	4bb	.	I
8f#)	.	8A#	.	8r	.	8ccc#	.	V6
=77	=77	=77	=77	=77	=77	=77	=77	=77
4f#	.	4B')	.	4r	.	4ddd#')	.	I
8r	.	(8E	.	(8g#	.	(8eee	.	IV
4r	.	4F#	.	4b	.	4ddd#	.	V(64)
8r	.	8E)	.	8a#X	.	8ccc#	.	V2
=78	=78	=78	=78	=78	=78	=78	=78	=78
2.r	.	(2.D#	.	4b')	.	4bb')	.	I6
.	.	.	.	8r	.	(8B	.	.
.	.	.	.	4r	.	4b	.	.
.	.	.	.	8r	.	8f##X	.	.
=79	=79	=79	=79	=79	=79	=79	=79	=79
2.e	.	[2.E)	.	4r	.	4a	.	I.I[I(4)
.	.	.	.	(8b	.	8g#)	.	I
.	.	.	.	4bb	.	4r	.	.
.	.	.	.	8gg#	.	8r	.	.
=80	=80	=80	=80	=80	=80	=80	=80	=80
!LO:TX:b:i:t=cresc.	!	!LO:TX:b:i:t=cresc.	!	!	!	!	!	!
[2.d	.	2.E_	.	4aa	.	4r	.	V7/iv
.	.	.	.	8gg#)	.	8b	.	.
!	!	!	!	!LO:TX:b:i:t=cresc.	!	!LO:TX:b:i:t=cresc.	!	!
.	.	.	.	[4.g#	.	4bb	.	.
.	.	.	.	.	.	8gg#	.	.
=81	=81	=81	=81	=81	=81	=81	=81	=81
4.d]	.	4.E]	.	4g#]	.	4bb'	.	V7/iv
.	.	.	.	8r	.	(8ccX	.	.
[4.a	.	[4.E	.	(4.ccX	.	4cccX	.	iv64
.	.	.	.	.	.	8aa	.	.
=82	=82	=82	=82	=82	=82	=82	=82	=82
4.a]	.	4.E]	.	4ccX)	.	4cccX')	.	.
.	.	.	.	(8a	.	(8cc#	.	IV64
(4.f##X	.	[4.E	.	[4.a#X)	.	4ccc#	.	#viio2/iii
.	.	.	.	.	.	8aa#X	.	.
=83	=83	=83	=83	=83	=83	=83	=83	=83
!LO:TX:b:i:t=poco rit.	!	!LO:TX:b:i:t=poco rit.	!	!LO:TX:b:i:t=poco rit.	!	!LO:TX:b:i:t=poco rit.	!	!
4f##X)	.	4E]	.	4a#]	.	4ccc#')	.	.
8r	.	8r	.	8r	.	(8aa#X	.	.
[4.g#	p	[4.E	p	[4.b	p	4ccc#	.	I(6)
.	.	.	.	.	.	8bb)	.	I]
=84	=84	=84	=84	=84	=84	=84	=84	=84
!	!	!	!	!	!	!	!LO:DY:a	!
(8g#L]	.	4.E]	.	(8bL]	.	[2.bb	p	V[I
8f#	.	.	.	8a	.	.	.	.
8g#J)	.	.	.	8bJ)	.	.	.	.
4r	.	(4.e	.	(8g#L	.	.	.	.
.	.	.	.	8f#	.	.	.	.
8r	.	.	.	8g#J)	.	.	.	.
=85	=85	=85	=85	=85	=85	=85	=85	=85
(8eL	<	([4.ee)	<	4r	<	(2.bb]	> < [[	I6
8d#	.	.	.	.	.	.	.	.
8eJ)	.	.	.	8r	.	.	.	.
4r	>	4ee]	>	8g#L	[ >	.	.	.
.	.	.	.	8f#	.	.	.	.
8r	] ]]	8dd#)	] ]]	8g#J	]]	.	.	.
=86	=86	=86	=86	=86	=86	=86	=86	=86
(8eL	.	(4dd#	p	4r	.	(2.bb)	[	IV
8d#	.	.	.	.	.	.	.	.
8eJ)	.	8b#X	.	8r	.	.	.	.
4r	.	4cc#	.	8aL	.	.	.	.
.	.	.	.	8a	.	.	.	.
8r	.	8dd#	.	8aJ	.	.	.	.
=87	=87	=87	=87	=87	=87	=87	=87	=87
(8eL	.	4ee	.	8AL	.	[2.bb)	.	.
8d#	.	.	.	8A	.	.	.	.
8eJ)	.	8dd#	.	8AJ	.	.	.	.
4r	.	8ff#L	.	(8aL	.	.	.	.
.	.	8ee	.	8g#	.	.	.	.
8r	.	8cc#J)	.	8aJ)	.	.	.	.
=88	=88	=88	=88	=88	=88	=88	=88	=88
!LO:TX:b:i:t=cresc.	!	!LO:TX:b:i:t=cresc.	!	!LO:TX:b:i:t=cresc.	!	!LO:TX:b:i:t=cresc.	!	!
(8eL	.	4.b	.	(8g#L	.	4.bb]	.	I]
8d#	.	.	.	8f#	.	.	.	.
8eJ)	.	.	.	8g#J)	.	.	.	.
4r	.	(8G#L	.	(4.e	.	(4.ee	.	I6
.	.	8F#	.	.	.	.	.	.
8r	.	8G#J)	.	.	.	.	.	.
=89	=89	=89	=89	=89	=89	=89	=89	=89
(8G#L	.	4r	.	([4.ee)	.	([4.eee)	.	.
8F#	.	.	.	.	.	.	.	.
8G#J)	.	8r	.	.	.	.	.	.
4r	.	8g#L 8b	.	4ee]	.	4eee]	.	.
.	.	8g# 8b	.	.	.	.	.	.
8r	.	8g#J 8b	.	8dd#)	.	8ddd#)	.	.
=90	=90	=90	=90	=90	=90	=90	=90	=90
(8AL	.	4r	.	(4dd#	.	(4ddd#	.	IV(4#2)
8G#	.	.	.	.	.	.	.	.
8AJ)	.	8r	.	8b#X	.	8bb#X	.	.
4r	.	8AL 8c#	.	4cc#	.	4ccc#	.	.
.	.	8A 8c#	.	.	.	.	.	.
8r	.	8AJ 8c#	.	8dd#)	.	8ddd#)	.	.
=91	=91	=91	=91	=91	=91	=91	=91	=91
(8AL	.	(8cc#L	.	(4ee	.	(4eee	.	.
8G#	.	8b#X	.	.	.	.	.	.
8AJ)	.	8cc#J)	.	8dd#	.	8ddd#	.	.
4r	.	8AL 8c#	.	8ff#L	.	8fff#L	.	.
.	.	8A 8c#	.	8ee	.	8eee	.	.
8r	.	8AJ 8c#	.	8cc#J)	.	8ccc#J)	.	.
=92	=92	=92	=92	=92	=92	=92	=92	=92
(4e	.	4G#	.	4b	.	4.bb	.	I6
8d#	.	(8A	.	(8dd#	.	.	.	.
4e	.	4G#	.	4ee	.	4r	.	.
8f#	.	8D#	.	8ff#	.	8r	.	.
=93	=93	=93	=93	=93	=93	=93	=93	=93
4g#	.	4E	.	4gg#	.	4r	.	I
8f#	.	8F#	.	8ff#	.	8r	.	.
[4.e)	.	4F##X	.	4ee	.	(4eee	.	I6(#7)
.	.	8G#)	.	8dd#)	.	8ddd#)	.	.
=94	=94	=94	=94	=94	=94	=94	=94	=94
(4e]	.	[2.A	.	[2.e [2.cc#	.	(4ddd#	.	IV(4#2)
8g#	.	.	.	.	.	8bb#X	.	.
[4.a)	.	.	.	.	.	4ccc#	.	IV
.	.	.	.	.	.	8ddd#	.	.
=95	=95	=95	=95	=95	=95	=95	=95	=95
!LO:TX:b:i:t=poco rit.	!	!LO:TX:b:i:t=poco rit.	!	!LO:TX:b:i:t=poco rit.	!	!LO:TX:b:i:t=poco rit.	!	!
4a]	.	2.A]	.	4.e] 4.cc#]	.	4eee	<	.
8b	.	.	.	.	.	8ddd#	.	.
4cc#	.	.	.	4a	.	(8fff#L	[ >	.
.	.	.	.	.	.	8eee)	.	.
8a	.	.	.	[8e [8cc#	.	8ccc#J)	]]	.
=96	=96	=96	=96	=96	=96	=96	=96	=96
!	!	!	!	!	!	!LO:TX:a:B:t=in tempo	!	!
!LO:TX:b:i:t=cresc.	!	!LO:TX:b:i:t=cresc.	!	!LO:TX:b:i:t=cresc.	!	!LO:TX:b:i:t=cresc.	!	!
(4a	.	8EL	.	4.e] 4.cc#]	.	(4ccc#	.	I(6)
.	.	8e	.	.	.	.	.	.
8f##X	.	8eJ	.	.	.	8a#X	.	.
4g#	.	8eL	.	8bL	.	4b	.	I
.	.	8e	.	8b	.	.	.	.
8e	.	8BJ	.	8g#J	.	8gg#)	.	.
=97	=97	=97	=97	=97	=97	=97	=97	=97
4.d#	>	8BL	>	8g#L	>	([4.gg#	>	vi
.	.	8g#	.	8b	.	.	.	.
.	.	8g#J	.	8bJ	.	.	.	.
4.d)	]]	8g#L	.	8bL	.	4gg#]	.	#viio2/ii
.	.	8e#X	.	8b	.	.	.	.
.	.	8e#J	]]	8g#J	]]	8b)	]]	.
=98	=98	=98	=98	=98	=98	=98	=98	=98
!	!	!	!	!	!LO:DY:a	!	!	!
4c#	f	8e#XL	f	8g#L	f f	(4b	.	V7/ii
.	.	8e#	.	8b	.	.	.	.
8r	.	8e#J	.	8bJ	.	8g#	.	.
4cX	.	8f#L	.	8aL	.	4a	.	iio6
.	.	8A	.	8f#	.	.	.	.
8r	.	8AJ	.	8f#J	.	8ff#)	.	.
=99	=99	=99	=99	=99	=99	=99	=99	=99
4B	.	8AL	.	8f#L	.	(4ff#	.	V2
.	.	8G#	.	8B	.	.	.	.
8r	.	8G#J	.	8BJ	.	8ee)	.	.
4BB	.	8G#L	.	8BL	.	(4ee	.	V(64)
.	.	8F#	.	8A	.	.	.	.
8r	.	8F#J	.	8aJ	.	8dd#)	.	.
=100	=100	=100	=100	=100	=100	=100	=100	=100
4C#	.	8EL	p	4a	p	4ee	p	IV6
.	.	8cc#	.	.	.	.	.	.
!	!	!LO:TX:b:i:t=cresc.	!	!LO:TX:b:i:t=cresc.	!	!LO:TX:b:i:t=cresc.	!	!
2r	.	8cc#J	.	(8dd#	.	8r	.	.
.	.	8cc#L	.	4ee	.	(4.a	.	IV.I
.	.	8cc#	.	.	.	.	.	.
.	.	8aJ	.	8ccc#)	.	.	.	.
=101	=101	=101	=101	=101	=101	=101	=101	=101
2.r	.	8aL	>	[4.ccc#	>	4.g#	>	I(#7)
.	.	8a	.	.	.	.	.	.
.	.	8aJ	.	.	.	.	.	.
.	.	8aL	.	(4ccc#]	.	4.g	]]	V7/IV
.	.	8a	.	.	.	.	.	.
.	.	8aJ	]]	8ee)	]]	.	.	.
=102	=102	=102	=102	=102	=102	=102	=102	=102
2.r	.	8aL	f	(4ee	f	4.f#	f	vi
.	.	8a	.	.	.	.	.	.
.	.	8aJ	.	8cc#	.	.	.	.
.	.	8aL	.	4dd	.	4.d 4.fX	.	iio6
.	.	8D	.	.	.	.	.	.
.	.	8DJ	.	8bb)	.	.	.	.
=103	=103	=103	=103	=103	=103	=103	=103	=103
2.r	.	8EL	.	(4bb	.	4c#) 4e	.	V(64+2)
.	.	8E	.	.	.	.	.	.
.	.	8EJ	.	8aa)	.	8r	.	V(64)
.	.	8EL	.	(4aa	.	4d 4e	.	V7(4)
.	.	8E	.	.	.	.	.	.
.	.	8EJ	.	8gg#)	.	8r	.	V7
=104	=104	=104	=104	=104	=104	=104	=104	=104
!	!	!	!LO:DY:a	!	!	!	!	!
4r	.	8AL	p	4aa	.	4c# 4e	.	I
.	.	8A	.	.	.	.	.	.
(8B	.	8AJ	.	8r	.	8r	.	.
!LO:TX:b:i:t=cresc.	!	!LO:TX:b:i:t=cresc.	!	!	!	!	!	!
4c#	.	8AL	.	4r	.	4r	.	.
.	.	8A	.	.	.	.	.	.
8a)	.	8F#J	.	8r	.	8r	.	.
=105	=105	=105	=105	=105	=105	=105	=105	=105
[4.a	>	8f#L	.	4r	.	2.r	.	ii.i
.	.	8f#	.	.	.	.	.	.
.	.	8f#J	.	(8b	p	.	.	.
!	!	!	!	!LO:TX:b:i:t=cresc.	!	!	!	!
(4a]	.	8f#L	.	4cc#	.	.	.	.
.	.	8f#	.	.	.	.	.	.
8c#)	]]	8f#J	.	8aa)	.	.	.	.
=106	=106	=106	=106	=106	=106	=106	=106	=106
(4c#	f >	8f#L	>	4gg#	.	4.r	.	V(4)
.	.	8e#X	.	.	.	.	.	.
8A#X	.	8e#J	.	8r	.	.	.	.
4B	.	8e#L	.	4r	.	4.r	.	V2
.	.	8g#	.	.	.	.	.	.
8g#)	]]	8e#J	]]	8r	.	.	.	.
=107	=107	=107	=107	=107	=107	=107	=107	=107
(4g#	p	8c#L	p	4r	.	4r	.	V
.	.	8c#	.	.	.	.	.	.
!	!	!	!LO:DY:a	!	!	!	!	!
8f#)	.	8c#J	p	(8A	.	8r	.	i6
(4f#	.	8c#L	.	4B	.	4r	.	V2(4)
.	.	8c#	.	.	.	.	.	.
8e#X)	.	8c#J	.	8g#)	.	8r	.	V6
=108	=108	=108	=108	=108	=108	=108	=108	=108
!LO:TX:b:i:t=cresc.	!	!LO:TX:b:i:t=cresc.	!	!LO:TX:b:i:t=cresc.	!	!	!	!
(4f#	.	(4a	.	8c#L	.	4r	.	i64
.	.	.	.	8c#	.	.	.	.
!	!	!	!	!	!	!LO:TX:b:i:t=cresc.	!	!
8e)	.	8g#)	.	8c#J	.	(8gg#	.	vi.i
(4e	.	(4g#	.	8c#L	.	4aa	.	i(6)
.	.	.	.	8c#	.	.	.	.
8d#)	.	8f#)	.	8c#J	.	8fff#)	.	i(42)
=109	=109	=109	=109	=109	=109	=109	=109	=109
(4e	.	(4g#	.	8c#L	.	4r	.	i
.	.	.	.	8c#	.	.	.	.
8d#)	.	8f#)	.	8b#XJ	.	(8ff#	.	viio6
(4d#	.	(4f#	.	(4b#	.	4gg#	.	V43
8c#)	.	8e)	.	8cc#)	.	8eee)	.	vi
=110	=110	=110	=110	=110	=110	=110	=110	=110
(4d#	.	(4f#	.	(4b#X	.	4r	.	viio6
8c#)	.	8e)	.	8cc#)	.	(8ee	.	i
(4c#	.	(4e	.	(4cc#	.	4ff#	.	i(4)
8B#X)	.	8d#)	.	8dd#)	.	8ddd#)	.	viio
=111	=111	=111	=111	=111	=111	=111	=111	=111
(4B#X	f	(4d#	f	(4dd#	f	(4ddd#	f	.
8c#)	.	8e)	.	8g#)	.	8eee)	.	i
(4c#	.	(4e	.	(4g#	.	(4eee	.	.
8B)	.	8c#)	.	8cc#)	.	8eee#X)	.	V2/iv
=112	=112	=112	=112	=112	=112	=112	=112	=112
(4B	p	(4.c#	p	[2.ccc#	p	(4.eee#X	p	.
8A)	.	.	.	.	.	.	.	.
[4.a	.	[4.cc#)	.	.	.	[4.fff#	.	iv6
=113	=113	=113	=113	=113	=113	=113	=113	=113
2.a]	.	2.cc#]	.	2.ccc#]	.	4.fff#]	.	.
.	.	.	.	.	.	4.fff##X)	.	.Ger6
=114	=114	=114	=114	=114	=114	=114	=114	=114
(4.g#	p <	(4.dd#	p <	(4.bb#X	p <	(2.ggg#	p <	iio64
4.f#	.	4.a	.	4.dd#	.	.	.	.
=115	=115	=115	=115	=115	=115	=115	=115	=115
4.e	.	4.g#	.	4.gg#	.	(2.ggg#)	.	iio6
4.d#	.	4.f#	.	4.b#X	.	.	.	.
=116	=116	=116	=116	=116	=116	=116	=116	=116
4.e	.	4.g#	.	4.cc#	.	(2.ggg#)	[[	iio6
4.d#	[[	4.f#	[[	[4.b#X	[[	.	.	.
=117	=117	=117	=117	=117	=117	=117	=117	=117
4.f#	>	4.a	>	4.b#] 4.dd#	>	(2.ggg#)	>]	i6
4.e)	]]	4.g#)	]]	4.cc#)	]]	.	.	.
=118	=118	=118	=118	=118	=118	=118	=118	=118
(4.d#	p <	4.g#	p <	4.b#X	p <	(4.ggg#)	p <	V64]
4.g#	.	4r	.	4.b#	.	4.fff#	.	V7
.	.	8r	.	.	.	.	.	.
=119	=119	=119	=119	=119	=119	=119	=119	=119
4.a	.	2.r	.	4.cc#	.	4.eee	.	VI
4.f##X	.	.	.	[4.cc#	.	4.ddd#	.	@none
=120	=120	=120	=120	=120	=120	=120	=120	=120
4.g#X)	.	4r	.	4.cc#]	.	4.eee	.	V(64)
.	.	8r	.	.	.	.	.	.
*clefF4	*	*	*	*	*	*	*	*
(4.GG#	[[	[4.g#	[[	4.b#X	[[	4.ddd#	[[	V
=121	=121	=121	=121	=121	=121	=121	=121	=121
4.C#	>	(4.g#]	>	4.cc#	>	4.fff#	>	i(4)
4.FF##X)	]]	4.a#X)	]]	4.cc#	]]	4.eee)	]]	#viio7/V
=122	=122	=122	=122	=122	=122	=122	=122	=122
!LO:TX:b:i:t=dim.	!	!LO:TX:b:i:t=dim.	!	!LO:TX:b:i:t=dim.	!	!LO:TX:b:i:t=dim.	!	!
4GG#X	.	[2.b#X	.	[2.gg#	.	[2.ddd#	.	V
(8GG#	.	.	.	.	.	.	.	.
4AA	.	.	.	.	.	.	.	.
8GG#)	.	.	.	.	.	.	.	.
=123	=123	=123	=123	=123	=123	=123	=123	=123
4r	.	2.b#_	.	2.gg#_	.	2.ddd#_	.	.
(8G#	.	.	.	.	.	.	.	.
4A	.	.	.	.	.	.	.	.
8G#)	.	.	.	.	.	.	.	.
=124	=124	=124	=124	=124	=124	=124	=124	=124
!	!	!	!LO:DY:a	!	!LO:DY:a	!	!	!
4r	.	4b#]	p	4gg#]	p	2.ddd#_	p	.
!	!	!LO:TX:b:i:t=piu p	!	!LO:TX:b:i:t=piu p	!	!	!	!
8r	.	(8b#X	.	(8gg#	.	.	.	.
4r	.	4cc#	.	4aa	.	.	.	.
*clefC4	*	*	*	*	*	*	*	*
!LO:TX:b:i:t=piu p	!	!	!	!	!	!	!	!
(8g#	.	8b#)	.	8gg#)	.	.	.	.
=125	=125	=125	=125	=125	=125	=125	=125	=125
!	!	!	!	!	!	!LO:TX:b:i:t=piu p	!	!
4a	.	4r	.	4r	.	2.ddd#_	pp	.
8g#)	.	(8b#X	.	(8gg#	pp	.	.	.
4r	.	4cc#	pp	4aa	.	.	.	.
(8g#	pp	[8b#)	.	[8gg#)	.	.	.	.
=126	=126	=126	=126	=126	=126	=126	=126	=126
4a	.	4.b#;]	.	4.gg#;]	.	4.ddd#;]	.	.
8g#;)	.	.	.	.	.	.	.	.
*clefF4	*	*	*	*	*	*	*	*
[4.c#	pp	4r	.	4r	.	(4.c#	pp	i
.	.	8r	.	8r	.	.	.	.
=127	=127	=127	=127	=127	=127	=127	=127	=127
2.c#_	.	4r	.	4r	.	[2.cc#)	.	V/iv
.	.	8r	.	8r	.	.	.	.
.	.	(4.e#X	pp	(4.g#	pp	.	.	.
=128	=128	=128	=128	=128	=128	=128	=128	=128
4.c#]	.	[2.f#)	.	4.a)	.	(2.cc#]	.	vi
(4.F#	.	.	.	(4.A	.	.	.	.
=129	=129	=129	=129	=129	=129	=129	=129	=129
4.f#)	.	2.f#_	.	[2.a)	.	4.cc#)	.	iv
(4.B	.	.	.	.	.	(4.d#	.	I.V7
=130	=130	=130	=130	=130	=130	=130	=130	=130
!LO:TX:b:i:t=cresc.	!	!LO:TX:b:i:t=cresc.	!	!LO:TX:b:i:t=cresc.	!	!LO:TX:b:i:t=cresc.	!	!
4b	.	4f#]	.	4a]	.	[4.dd#)	.	V43
8a	.	(8cc#	.	(8ccc#	.	.	.	.
4g#	.	4b	.	4bb	.	(4dd#]	.	.
8f#)	.	8a)	.	8aa)	.	8ee)	.	.
=131	=131	=131	=131	=131	=131	=131	=131	=131
(4f#	.	(4a	.	(4aa	.	[4.ff#	.	V43
8e	.	8g#	.	8gg#	.	.	.	.
4d#	.	4f#	.	4ff#	.	(4ff#]	.	.
8c#)	.	8e)	.	8ee)	.	8gg#)	.	.
=132	=132	=132	=132	=132	=132	=132	=132	=132
(4B	.	(4d#	.	(4dd#	.	[4.aa	.	V7
8A	.	8c#	.	8cc#	.	.	.	.
4G#	.	4B	.	4b	.	(4aa]	.	.
8F#)	.	8d#)	.	8dd#)	.	8bb)	.	.
=133	=133	=133	=133	=133	=133	=133	=133	=133
4E	f	4e	f	4.ee	f	4gg#	f	I
8EE'	.	8G#'	.	.	.	(8bb	.	.
4DD#'	.	4F#'	.	4r	.	4ccc#	.	V6(7)
8EE'	.	8G#'	.	8r	.	8gg#	.	.
=134	=134	=134	=134	=134	=134	=134	=134	=134
8DD#'	.	8F#'	.	4r	.	4bb)	.	V6
8r	.	8r	.	.	.	.	.	.
8r	.	8r	.	8ee'	p	(8ff#	p	.
4r	.	4r	.	4dd#'	.	4ccc#	.	V6(7)
8d#'	p	8f#'	p	8ff#'	.	8aa	.	V65
=135	=135	=135	=135	=135	=135	=135	=135	=135
4e'	.	4g#'	.	8b'	.	4gg#)	.	I
.	.	.	.	8r	.	.	.	.
8FF#'	f	8A'	f	8r	.	(8ccc#	f	ii
4EE#X'	.	4G#'	.	4r	.	4ddd	.	viio7/ii
8FF#'	.	8A'	.	8r	.	8aa	.	ii
=136	=136	=136	=136	=136	=136	=136	=136	=136
4EE#X'	.	4G#'	.	4r	.	4ccc#)	.	viio7/ii
8r	.	8r	.	8ff#'	p	(8gg#	p	.
4r	.	4r	.	4ee#X'	.	4ddd	.	viio7/ii
8e#X'	p	8g#'	p	8gg#'	.	8bb	.	viio/ii
=137	=137	=137	=137	=137	=137	=137	=137	=137
4f#'	.	4a'	.	8cc#'	.	4aa)	.	ii
.	.	.	.	8r	.	.	.	.
8AA'	f	8c#'	f	8r	.	(8eee	f	IV.I
4GG#'	.	4B'	.	4r	.	4fff#	.	V6(7)
8AA'	.	8c#'	.	8r	.	8ccc#	.	I
=138	=138	=138	=138	=138	=138	=138	=138	=138
4GG#'	.	4B'	.	4r	.	4eee)	.	V6
*clefC4	*	*	*	*	*	*	*	*
8a	p	8b	p	8ee	p	(8bb	p	.
4g#	.	4b	.	4ee	.	4fff#	.	V65
8g#	.	8b	.	8ee	.	8ddd)	.	.
=139	=139	=139	=139	=139	=139	=139	=139	=139
!LO:TX:b:i:t=cresc.	!	!LO:TX:b:i:t=cresc.	!	!LO:TX:b:i:t=cresc.	!	!LO:TX:b:i:t=cresc.	!	!
4a'	.	4cc#'	.	4ee'	.	(4ddd	.	I(4)
8b'	.	8dd'	.	8ee'	.	8ccc#	.	.
4a'	f	4cc#'	f	4ee'	f	4eee	f	I
8r	.	8r	.	8r	.	8ccc#)	.	.
=140	=140	=140	=140	=140	=140	=140	=140	=140
4r	.	4r	.	4r	.	(4ccc#	.	.
8a	.	8cc#	.	8ee	.	8bb	.	.
4g#	sf	4b	sf	4ee	sf	4eee	sf	V6
8r	.	8r	.	8r	.	8bb)	.	.
=141	=141	=141	=141	=141	=141	=141	=141	=141
4r	.	4r	.	4r	.	(4bb	.	.
8g#	.	8b	.	8ee	.	8aa	.	V6(2)
4f#	sf	4a	sf	4ee	sf	4eee	sf	vi7
8r	.	8r	.	8r	.	8aa)	.	.
=142	=142	=142	=142	=142	=142	=142	=142	=142
4r	.	4r	.	4r	.	(4aa	.	.
8f#	.	8a	.	8ee	.	8gg#	.	vi7(2)
4e	sf	4g#	sf	4ee	sf	4eee	sf	V
8r	.	8e	.	8ee	.	8gg#)	.	.
=143	=143	=143	=143	=143	=143	=143	=143	=143
4r	.	4d	f	4dd	f	(4eee	f	V2
8E	f	8E	.	8r	.	8gg#	.	.
4D	.	4B	.	4r	.	4eee	.	V2
8r	.	8d	.	8dd	.	8gg#)	.	.
=144	=144	=144	=144	=144	=144	=144	=144	=144
4r	.	4c#	.	4cc#	.	(4eee	.	I6
8D	.	8E	.	8r	.	8aa	.	V2
4C#	sf	4A	sf	4r	.	4eee	sf	I6
8r	.	8c#	.	8cc#	.	8aa)	.	.
=145	=145	=145	=145	=145	=145	=145	=145	=145
4r	.	4B	.	4b	.	(4eee	.	V64
8C#	.	8A	.	8a	.	8bb	.	I6(2)
4BB	sf	4G#	sf	4g#	sf	4eee	sf	V64
8BB	.	8E 8d	.	8g#	.	8bb)	.	V43
=146	=146	=146	=146	=146	=146	=146	=146	=146
4AA	.	4E 4c#	.	4a	.	(4eee	.	I
8BB	.	8E 8d	.	8a	.	8ccc#	.	.
4AA	sf	4E 4c#	sf	4a	sf	4eee	sf	.
8A	.	8e	.	8cc#	.	8ccc#)	.	.
=147	=147	=147	=147	=147	=147	=147	=147	=147
(2.G#	p	4e	p	4ee	p	4eee	p	V6
.	.	8r	.	8r	.	(8e	.	.
.	.	4r	.	(4.e	.	4ee	.	.
.	.	8r	.	.	.	8b#X	.	.
=148	=148	=148	=148	=148	=148	=148	=148	=148
4A)	.	[2.A [2.a	.	4e)	.	4dd	.	I(4)
8r	.	.	.	(8ee	.	8cc#)	.	I
4r	.	.	.	4eee	.	4r	.	.
8r	.	.	.	8ccc#)	.	8r	.	.
=149	=149	=149	=149	=149	=149	=149	=149	=149
(4d#	.	4A] 4a]	.	(4ccc#	.	4r	.	V6(7)/V
8f#	.	(8a	.	8bb)	.	(8dd#X	.	.
4e	.	4g#	.	4r	.	4ee	.	V
8d#	.	8f#	.	8r	.	8ff#	.	V6/V
=150	=150	=150	=150	=150	=150	=150	=150	=150
4e)	.	4b')	.	4r	.	4gg#')	.	V
8r	.	(8A	.	(8cc#	.	(8aa	.	IV/V
4r	.	4B	.	4e	.	4gg#	.	V(64)/V
8r	.	8A)	.	8d#	.	8ff#	.	V2/V
=151	=151	=151	=151	=151	=151	=151	=151	=151
2.r	.	2.G#	.	4e')	.	4ee')	.	V6
.	.	.	.	8r	.	(8e	.	.
.	.	.	.	4r	.	4ee	.	.
.	.	.	.	8r	.	8b#X	.	.
=152	=152	=152	=152	=152	=152	=152	=152	=152
!LO:TX:b:i:t=cresc.	!	!LO:TX:b:i:t=cresc.	!	!	!	!	!	!
(2.a	.	2.A	.	4r	.	4dd	.	I(4)
.	.	.	.	(8ee	.	8cc#)	.	.
.	.	.	.	4eee	.	4r	.	I
.	.	.	.	8ccc#	.	8r	.	.
=153	=153	=153	=153	=153	=153	=153	=153	=153
[2.g)	.	[2.A	.	4ddd	.	4r	.	I[V7/iv
!	!	!	!	!LO:TX:b:i:t=cresc.	!	!LO:TX:b:i:t=cresc.	!	!
.	.	.	.	8ccc#)	.	(8ee	.	.
.	.	.	.	[4.a	.	4eee	.	.
.	.	.	.	.	.	8ccc#	.	.
=154	=154	=154	=154	=154	=154	=154	=154	=154
4g]	.	4A]	.	4a]	.	4eee')	.	.
8r	.	8r	.	8r	.	(8ffX	.	.
[4.d	.	[4.A	.	[4.a	.	4fffX	.	iv
.	.	.	.	.	.	8ddd	.	.
=155	=155	=155	=155	=155	=155	=155	=155	=155
4d]	.	4A]	.	4a]	.	4fffX')	.	.
8r	.	8r	.	8r	.	8ff#	.	.
(4.d	.	[4.A	.	[4.a	.	4fff#	.	IV
.	.	.	.	.	.	8ddd	.	.
=156	=156	=156	=156	=156	=156	=156	=156	=156
!LO:TX:b:i:t=poco rit.	!	!LO:TX:b:i:t=poco rit.	!	!LO:TX:b:i:t=poco rit.	!	!LO:TX:b:i:t=poco rit.	!	!
4B#X)	.	4A]	.	4a]	.	4fff#'	.	#viio7/iii
8r	.	8r	.	8r	.	(8ddd#X	p	.
!	!	!	!	!	!	!LO:TX:b:i:t=espress.	!	!
4.d#	p	[4.A	p	(4.a	p	4fff#	.	#viio/ii
.	.	.	.	.	.	8eee)	.	.
=157	=157	=157	=157	=157	=157	=157	=157	=157
!	!	!	!	!	!	!LO:TX:a:B:t=in tempo	!	!
4.c#	.	4.A]	.	[2.aa)	.	[2.eee	.	I]
(4.A	<	[4.cc#	.	.	.	.	.	.
=158	=158	=158	=158	=158	=158	=158	=158	=158
[4.a)	.	2.cc#]	.	2.aa_	.	2.eee]	.	.
4a]	[ >	.	.	.	.	.	.	.
8g#	]]	.	.	.	.	.	.	.
=159	=159	=159	=159	=159	=159	=159	=159	=159
(4g#	.	[2.dd	.	2.aa_	.	(2.ddd	.	IV6
8e#X	.	.	.	.	.	.	.	.
4f#	.	.	.	.	.	.	.	.
8g#	.	.	.	.	.	.	.	.
=160	=160	=160	=160	=160	=160	=160	=160	=160
4a	.	2.dd]	.	2.aa_	.	2.ddd)	.	.
8g#	.	.	.	.	.	.	.	.
8bL	.	.	.	.	.	.	.	.
8a	.	.	.	.	.	.	.	.
8f#J)	.	.	.	.	.	.	.	.
=161	=161	=161	=161	=161	=161	=161	=161	=161
(8eL	.	4a 4cc#	.	4aa]	.	4ccc#	.	I64
8d#	.	.	.	.	.	.	.	.
8eJ)	.	8r	.	8r	.	8r	.	.
!	!	!LO:TX:b:i:t=cresc.	!	!LO:TX:b:i:t=cresc.	!	!LO:TX:b:i:t=cresc.	!	!
4r	.	(8g#L	.	(8bL	.	(4.ee	.	V6
.	.	8f#	.	8a	.	.	.	.
8r	.	8g#J)	.	8bJ)	.	.	.	.
=162	=162	=162	=162	=162	=162	=162	=162	=162
!LO:TX:b:i:t=cresc.	!	!	!	!	!	!	!	!
(8eL	.	4r	.	4r	.	([4.eee)	.	V
8d#	.	.	.	.	.	.	.	.
8eJ)	.	8r	.	8r	.	.	.	.
4r	.	(8g#L	.	(8bL	.	4eee]	.	I.I6
.	.	8f#	.	8a	.	.	.	.
8r	.	8g#J)	.	8bJ)	.	8ddd#)	.	.
=163	=163	=163	=163	=163	=163	=163	=163	=163
(8eL	p	4r	.	4r	.	(4ddd#	p	IV64(7)
8d#	.	.	.	.	.	.	.	.
8eJ)	.	8r	.	8r	.	8bb#X	.	.
4r	.	8AL	p	(8c#L	p	4ccc#	.	IV
.	.	8A	.	8B	.	.	.	.
8r	.	8AJ	.	8c#J)	.	8ddd#	.	.
=164	=164	=164	=164	=164	=164	=164	=164	=164
(8eL	.	4r	.	4r	.	4eee	.	IV64
8d#	.	.	.	.	.	.	.	.
8eJ)	.	8r	.	8r	.	8ddd#	.	.
4r	.	8aL	.	8cc#L	.	8fff#L	.	IV
.	.	8a	.	8cc#	.	8eee	.	.
8r	.	8aJ	.	8cc#J	.	8ccc#J)	.	.
*clefF4	*	*	*	*	*	*	*	*
=165	=165	=165	=165	=165	=165	=165	=165	=165
!LO:TX:b:i:t=cresc.	!	!LO:TX:b:i:t=cresc.	!	!	!	!LO:TX:b:i:t=cresc.	!	!
8EL	.	8G#L	.	4r	.	8ccc#L	.	I(6)
8E	.	8G#	.	.	.	(8a#X	.	.
8EJ	.	8G#J	.	8r	.	8bJ	.	I
!	!	!	!	!LO:TX:b:i:t=cresc.	!	!	!	!
4r	.	4r	.	8g#L	.	8ff#L	.	I6(7)
.	.	.	.	8g#	.	8dd#	.	.
8r	.	8r	.	8g#J	.	8eeJ	.	I6
=166	=166	=166	=166	=166	=166	=166	=166	=166
(8EL	.	8G#L	.	4r	.	8gg#L	.	I
8D#	.	8G#	.	.	.	8ff#	.	.
8EJ)	.	8G#J	.	8r	.	8eeJ	.	.
4r	.	4r	.	8g#L	.	8dd#L	.	I6
.	.	.	.	8g#	.	8cc#	.	.
8r	.	8r	.	8g#J	.	8b#XJ)	.	.
=167	=167	=167	=167	=167	=167	=167	=167	=167
8AAL	.	4r	.	4r	.	(8dd#L	.	IV(4)
8AA	.	.	.	.	.	8b#X	.	.
8AAJ	.	8r	.	8r	.	8cc#J)	.	.
4r	.	8AL	.	8c#L	.	(8cc#L	.	IV
.	.	8A	.	8c#	.	8dd	.	.
8r	.	8AJ	.	8c#J	.	8dd#XJ)	.	.
=168	=168	=168	=168	=168	=168	=168	=168	=168
8AL	.	8c#L	.	4r	.	(8dd#L	.	.
8A	.	8c#	.	.	.	8ee	.	.
8AJ	.	8c#J	.	8r	.	8ee#XJ)	.	.
4r	.	8aL	.	8cc#L	.	(8ee#L	.	IV+
.	.	8a	.	8cc#	.	8ff#	.	.
8r	.	8aJ	.	8cc#J	.	8ff##XJ)	.	.It6
*clefC4	*	*	*	*	*	*	*	*
=169	=169	=169	=169	=169	=169	=169	=169	=169
4G#	f p	4d#	f	4b#X	f	[2.gg#X	f	III[V/vi
(8G#	.	8r	.	8r	.	.	.	.
4c#	.	4r	.	4r	.	.	.	.
8B#X	.	8r	.	8r	.	.	.	.
=170	=170	=170	=170	=170	=170	=170	=170	=170
4e	.	2.r	.	2.r	.	(2.gg#]	p	V2/iv
8d#	.	.	.	.	.	.	.	.
4g#	.	.	.	.	.	.	.	.
8f#)	.	.	.	.	.	.	.	.
=171	=171	=171	=171	=171	=171	=171	=171	=171
4e	.	4r	.	4r	.	(2.gg#)	.	vi(2)
8r	.	(8G#	p	(8g#	p	.	.	.
4r	.	4d#	.	4dd#	.	.	.	.
(8e	.	8c#	.	8cc#	.	.	.	.
=172	=172	=172	=172	=172	=172	=172	=172	=172
4d#	.	4f#	.	4ff#	.	(2.gg#)	.	vi6(42)
8c#	.	8e	.	8ee	.	.	.	.
4f#	.	4a	.	4aa	.	.	.	.
8e	.	8g#	.	8gg#	.	.	.	.
=173	=173	=173	=173	=173	=173	=173	=173	=173
!LO:TX:b:i:t=cresc.	!	!LO:TX:b:i:t=cresc.	!	!	!	!LO:TX:b:i:t=cresc.	!	!
4d#')	.	4f#')	.	4ff#')	.	(2.bb)	.	I
(8B	.	(8d#	.	8r	.	.	.	.
4e	.	4g#	.	4r	.	.	.	.
!	!	!	!	!LO:TX:b:i:t=cresc.	!	!	!	!
8d#	.	8f#	.	(8b	.	.	.	.
=174	=174	=174	=174	=174	=174	=174	=174	=174
!	!	!	!	!	!	!LO:TX:b:i:t=cresc.	!	!
4g#	.	4e	.	4ee	.	(2.bb)	.	I6
8f#	.	8d#	.	8dd#	.	.	.	.
4b	.	4g#	.	4gg#	.	.	.	.
8a	.	8f#	.	8ff#	.	.	.	.
=175	=175	=175	=175	=175	=175	=175	=175	=175
4g#')	.	4e')	.	4ee')	.	4bb)	.	I
*clefF4	*	*	*	*	*	*	*	*
(8EE	.	(8E	.	(8e	.	(8e	.	.
4AA	.	4A	.	4a	.	4a	.	.
8GG#	.	8G#	.	8g#	.	8g#	.	.
=176	=176	=176	=176	=176	=176	=176	=176	=176
4C#	.	4c#	.	4cc#	.	4cc#	.	.
8BB	.	8B	.	8b	.	8b	.	.
4F#	.	4f#	.	4f#	.	4ff#	.	.
8E	.	8e	.	8e	.	8ee	.	.
=177	=177	=177	=177	=177	=177	=177	=177	=177
4G#	.	4g#	.	4g#	.	4gg#	.	.
8F#	.	8f#	.	8f#	.	8ff#	.	.
4B	.	4b	.	4b	.	4bb	.	V7
8A	.	8a	.	8a	.	8aa	.	.
=178	=178	=178	=178	=178	=178	=178	=178	=178
4G#	.	4g#	.	4g#	.	4gg#	.	I6
8A	.	8a	.	8a	.	8aa	.	.
4F#	.	4f#	.	4f#	.	4ff#	.	V
8D#	.	8d#	.	8d#	.	8dd#	.	.
=179	=179	=179	=179	=179	=179	=179	=179	=179
4F#	.	4f#	.	4f#	.	4ff#	.	.
8E	.	8e	.	8e	.	8ee	.	.
4BB	.	4B	.	4B	.	4b	.	.
8BB#X	.	8B#X	.	8B#X	.	8b#X	.	.
=180	=180	=180	=180	=180	=180	=180	=180	=180
4D#	.	4d#	.	4d#	.	4dd#	.	.
8C#)	.	8c#)	.	8c#)	.	8cc#)	.	.
(4FF#	f	(4F#	f	(4f#	f	(4f#	f	.
8BB	.	8B	.	8b	.	8b	.	.
=181	=181	=181	=181	=181	=181	=181	=181	=181
4AA	.	4A	.	4a	.	4a	.	.
8GG#	.	8G#	.	8g#	.	8g#	.	.
4EE	.	4E	.	4e	.	4e	.	I
8EE#X	.	8E#X	.	8e#X	.	8e#X	.	.
=182	=182	=182	=182	=182	=182	=182	=182	=182
4GG#	.	4G#	.	4g#	.	4g#	.	.
8FF#)	.	8F#)	.	8f#)	.	8f#)	.	.
!	!	!	!LO:DY:a	!	!LO:DY:a	!	!	!
(4cX	ff	(4A	ff ff	(4A	ff	(4A	.	viio43
8A	.	8F#	.	8cX	.	8cX	.	.
=183	=183	=183	=183	=183	=183	=183	=183	=183
4F#	.	4D#	.	4d#	.	4d#	.	viio7
8D#	.	8F#	.	8f#	.	8f#	.	.
4CX	.	4A	.	4A	.	4a	.	viio2
8AA	.	8cX	.	8cX	.	8ccX	.	.
=184	=184	=184	=184	=184	=184	=184	=184	=184
4FF#	.	4f#	.	4d#	.	4dd#	.	viio65
8EE	.	8a	.	8f#	.	8ff#	.	.
4DD#)	.	4ff#)	.	4a)	.	4aa)	.	V65
*clefC4	*	*	*	*	*	*	*	*
(8f#	ff	(8a	ff	(8b	ff	(8ddd#	ff	V43
=185	=185	=185	=185	=185	=185	=185	=185	=185
8eL)	.	8g#L)	.	8gg#L)	.	8eeeL)	.	I
8r	.	8r	.	8r	.	8r	.	.
(8d#J	.	(8b#XJ	.	(8ff#J	.	(8gg#J	.	V43/vi
8c#L)	.	8g#L)	.	8eeL)	.	8ccc#L)	.	vi
8r	.	8r	.	8r	.	8r	.	.
*clefF4	*	*	*	*	*	*	*	*
(8BJ	.	(8g#J	.	(8ddJ	.	(8eeJ	.	V43/IV
=186	=186	=186	=186	=186	=186	=186	=186	=186
8AL)	.	8eL)	.	8cc#L)	.	8aaL)	.	IV
8r	.	8r	.	8r	.	8r	.	.
(8G#J	.	(8e#XJ	.	(8bJ	.	(8cc#J	.	V43/ii
8F#L)	.	8c#L)	.	8aL)	.	8ff#L)	.	ii
8r	.	8r	.	8r	.	8r	.	.
(8CXJ	.	[8f#J	.	[8aJ [8ff#	.	[8AJ	.	iio64
=187	=187	=187	=187	=187	=187	=187	=187	=187
4.BB)	.	4.f#]	.	4.a] 4.ff#]	.	(4A]	.	V7
.	.	.	.	.	.	8b)	.	.
[4.BB	p	[4.F#	p	[4.d#	p	[4.a	p	.
=188	=188	=188	=188	=188	=188	=188	=188	=188
4.BB_	.	4.F#_	.	4.d#_	.	4.a_	.	.
4BB;]	.	4F#;]	.	4d#;]	.	4a;]	.	.
*clefC4	*	*	*	*	*	*	*	*
(8f#	ff	(8a	ff	(8b	ff	(8ddd#	ff	V43
=189	=189	=189	=189	=189	=189	=189	=189	=189
8eL)	.	8g#L)	.	8gg#L)	.	8eeeL)	.	I
8r	.	8r	.	8r	.	8r	.	.
(8d#J	.	(8f#J	.	(8b#XJ	.	(8gg#J	.	V43/vi
8c#L)	.	8eL)	.	8eeL)	.	8ccc#L)	.	vi
8r	.	8r	.	8r	.	8r	.	.
(8BJ	.	(8dJ	.	(8g#J	.	(8eeJ	.	V43/IV
=190	=190	=190	=190	=190	=190	=190	=190	=190
8AL)	.	8c#L)	.	8cc#L)	.	8aaL)	.	IV
8r	.	8r	.	8r	.	8r	.	.
(8G#J	.	(8BJ	.	(8e#XJ	.	(8cc#J	.	V43/ii
8F#L)	.	8AL)	.	8aL)	.	8ff#L)	.	ii
8r	.	8r	.	8r	.	8r	.	.
*clefF4	*	*	*	*	*	*	*	*
(8CXJ	.	(8EJ	.	[8aJ [8ff#	.	[8AJ	.	iio64
=191	=191	=191	=191	=191	=191	=191	=191	=191
(4.BB)	.	4.D#)	.	4.a] 4.ff#]	.	(4A]	.	V7
.	.	.	.	.	.	8b)	.	.
[4.BB)	p	[4.d#	p	[4.f#	p	4a	p	.
.	.	.	.	.	.	8bb	.	.
=192	=192	=192	=192	=192	=192	=192	=192	=192
2.BB_	.	2.d#_	.	2.f#_	.	[2.aa	.	.
=193	=193	=193	=193	=193	=193	=193	=193	=193
(4.BB]	.	(4.d#]	.	(4.f#]	.	(4.aa]	.	.
4E)	.	4e)	.	4g#)	.	4gg#)	.	I\\
8r	.	8r	.	8r	.	8r	.	.
=194	=194	=194	=194	=194	=194	=194	=194	=194
4r	.	4r	.	4r	.	4r	.	.
8r	.	8r	.	8r	.	8r	.	.
!LO:TX:b:i:t=mezza voce	!	!LO:TX:b:i:t=mezza voce	!	!LO:TX:b:i:t=mezza voce	!	!LO:TX:b:i:t=mezza voce	!	!
[4.BB	.	[4.F#	.	[4.d#	.	[4.a	.	V7
=195	=195	=195	=195	=195	=195	=195	=195	=195
(4.BB]	.	(4.F#]	.	(4.d#]	.	(4.a]	.	.
4E)	.	4G#)	.	4e)	.	4g#)	.	I\\
8r	.	8r	.	8r	.	8r	.	.
=196	=196	=196	=196	=196	=196	=196	=196	=196
2.r	.	2.r	.	2.r	.	2.r	.	.
=197	=197	=197	=197	=197	=197	=197	=197	=197
4E	pp	4G#	.	4e	.	4g#	pp	I
8r	.	8r	pp	8r	pp	8r	.	.
4r	.	4r	.	4r	.	4r	.	.
8r	.	8r	.	8r	.	8r	.	.
=198	=198	=198	=198	=198	=198	=198	=198	=198
4E	.	4G#	.	4e	.	4g#	.	I\\
8r	.	8r	.	8r	.	8r	.	.
4r	.	4r	.	4r	.	4r	.	.
8r	.	8r	.	8r	.	8r	.	.
==	==	==	==	==	==	==	==	==
*-	*-	*-	*-	*-	*-	*-	*-	*-
!!!system-decoration: [(s1,s2,s3,s4)]
